X:1
T: Father Fielding's Favourite
C:
R:Jig
Q:180
K:G
M:6/8
L:1/16
D2|G2A2B2 B2c2A2|A2G2G2 G4Bc|d2B2G2 F2G2A2|F2D2D2 D4D2|G2A2B2 B2c2A2|A2G2G2 f2e2d2|c2A2G2 F2G2A2|B2G2G2 G4D2|
G2A2B2 B2c2A2|A2G2G2 G4Bc|d2B2G2 F2G2A2|F2D2D2 D4D2|G2A2B2 B2c2A2|A2G2G2 f2e2d2|c2A2G2 F2G2A2|B2G2G2 G4d2|
g2f2g2 a2f2d2|c2B2c2 d2B2G2|g2f2g2 a2f2d2|c2B2c2 d4d2|g2f2g2 g2f2g2|e2c2e2 e2f2g2|d2e2d2 c2B2A2|B2G2G2 G4d2|
g2f2g2 a2f2d2|c2B2c2 d2B2G2|g2f2g2 a2f2d2|c2B2c2 d4d2|g2f2g2 g2f2g2|e2c2e2 e2f2g2|d2e2d2 c2B2A2|B2G2G2 G4||
